X: 29
T: Harvest Home
C:Jinky Wells
N:Found by Jim Harding and Nick Barber in MS at C# House
S:"geoff" <brackenrigg@gmail.com> tradtunes 2011-9-9
F:http://www.youtube.com/watch?v=0SDZzKL_m5Q
M:4/4
L:1/8
K:G
|: GBAG FGA2|AcBA GAB2|GBdg gde2|dBc/B/A GFG2  :|
[| Bdg2 gde2|e>fga/g/ fed2|Bdg2 fee2|A>Bcd cBBA |
   GABc dcA2|A>Bcd edBA|GBdg gde2|dBc/B/A GBG2 |]


